X:1
T:Title
%%score { ( 1 3 4 ) | ( 2 5 ) }
L:1/8
Q:1/4=100
M:4/4
K:F
V:1 treble nm="Grand Piano"
V:3 treble 
V:4 treble 
V:2 bass 
V:5 bass 
V:1
 [CFA]2 [CFA]>[=B,EG] [A,DF]2 [A,DF]>[K:bass][G,^CE] | [F,D]2 [F,DF]>D C4 | F2 F>G A2 F>A | %3
w: J.~H.~Tenney * * * * *|||
 G2 G>A [CEG]4 | [CFA]2 [CFA]>[B,EG] [A,DF]2 [A,DF]>[K:bass][G,^CE] | z2 [DF]2[K:treble] z4 | %6
w: |||
 F2 F>G A2 F>A | [DG]2 F>E F4 | [EB]2 .B>G, G2 .G>G, | A2[K:bass][K:treble] z2 z4 | d2 z2 c2 z2 | %11
w: |||||
 G2 [FA]>[F=B] [Ec]4 | c2 c>d c2 A[CFA] | F-[CFA][B,FB][Fc] [Fd]4 | dc =B>c A2 [CF][DFG] | %15
w: ||||
 [CFA]2 [CEA]>[B,EG] [A,F]4 |] %16
w: |
V:2
 F,2 F,>C, D,2 D,>A,, | B,,2 B,,>[D,F,B,] [F,A,]4 | %2
 [F,A,C]2 [F,A,C]>[F,=B,C] [F,CF]2 [F,A,]>[K:treble][F,CF] | [G,CE]2 [G,=B,F]>[G,B,F][K:bass] C,4 | %4
 F,2 F,>C, D,2 D,>A,, | B,,2 .B,,>B, [F,A,]4 | [F,A,C]2 [F,A,C]>[F,B,C] [F,CF]2 [F,A,]>[F,CF] | %7
 [B,,B,]2 [C,A,C]>[C,G,C] [F,A,C]4 | [C,G,]2 .[E,G,E]2[K:treble] [CE]2 .[B,CE]2 | %9
 .[F,CF]2 [F,CF]>[G,CE] [A,CF]4 | [B,F]2 .[B,F]2 .[A,CF]2 .[A,CF]2 | %11
 [G,CE]2 [G,,G,]>[G,,G,] [C,G,]4 | [F,A,F]2 [F,A,F]>[F,B,F] [F,A,F]2 [F,CF]_E, | %13
 D,_E,D,[C,A,] [B,,B,]4 | .B,2 z2 z4 | C,2 C,>C, F,4 |] %16
V:3
 x15/2[K:bass] x/ | x8 | x8 | x8 | x15/2[K:bass] x/ | [F,D]2 .F,>D[K:treble] C4 | x8 | x8 | x8 | %9
 z[K:bass] C,[K:treble] A>B c4 | z A,dG, z _A,cF, | x8 | x8 | .[B,B]2 z2 z4 | x8 | x8 |] %16
V:4
 x15/2[K:bass] x/ | x8 | x8 | x8 | x15/2[K:bass] x/ | z2 z F,[K:treble] z4 | x8 | x8 | x8 | %9
 x[K:bass] x[K:treble] x6 | x8 | x8 | x8 | x8 | x8 | x8 |] %16
V:5
 x8 | x8 | x15/2[K:treble] x/ | x4[K:bass] x4 | x8 | z2 z D, z4 | x8 | x8 | x4[K:treble] x4 | x8 | %10
 x8 | x8 | x8 | x8 | [F,F]-[F,A,F] [F,_A,F]>[F,=A,F] [F,CF]2 A,,B,, | x8 |] %16

